X:91
T:Planxty Malcolm
M:C|
L:1/8
C:© Paul Gitlitz 1984
R:Hornpipe
B:Giblitz Fancy, 141 Brand New Old Time Fiddle Tunes Vol. 2
N:Written for an old friend and fine fiddler.
K:Am
cB|"Am"A2E2A2E2|AEABc2BA|"C"G2C2E2C2|"Em"G^FGA "G"BdcB|!
"Am"A2E2A2E2|AEAB cBcd|"Em"edcB "G"cdcB|"Am"c2A2A2:|!
|:Bc|"Dm"d2de dcB2|"Am"cBcdc3e|"F"f2fg fed2|"Am"edefe3e|!
"Dm"~d2de dcB2|"Am"cBcd edcB|"F"F2d2"C"E2cc|({Bc}"E"B)AB^G "A(m)"A2:|]
